X:1
T:Title
L:1/8
Q:1/4=100
M:3/4
K:F
V:1 treble nm="Grand Piano"
V:1
 D>D D2 D2 | E>F D4 | A>A A2 d2 | ^c>B A4 | G>A B2 AG | F>G A4 | E>F G2 F2 | E>D A4 | G>A B2 AG | %9
w: ???~???? * * *|||||||||
 F>G A4 | D>E F2 E2 | D>^C D4 |] %12
w: |||

